usr/share/icons/biglinux-icons-material/24/actions/draw-cuboid.svg

<svg xmlns="http://www.w3.org/2000/svg" viewBox="0 0 24 24">
  <defs id="defs3051">
    <style type="text/css" id="current-color-scheme">
      .ColorScheme-Text {
        color:#dedede;
      }
      </style>
  </defs>
 <path 
     style="fill:currentColor;fill-opacity:1;stroke:none" 
     d="M 12 1.4121094 C 11.2585 1.8827094 11.993 1.4120906 11.21875 1.9003906 L 3 7.3691406 L 3 8.5878906 L 3 16.181641 L 3 16.587891 C 4.14882 17.339591 3.22209 16.732191 3.75 17.087891 L 11.09375 21.994141 C 11.9891 22.590341 11.10175 21.994091 12 22.587891 C 20.02331 17.263691 18.05377 18.574091 20.375 17.025391 C 21.00661 16.563791 20.49219 16.930441 21 16.556641 L 21 16.212891 L 21 16.181641 L 21 8.5878906 L 21 7.3691406 C 18.6762 5.8224406 20.66009 7.1425406 20.4375 6.9941406 L 12.78125 1.9003906 L 12.375 1.6503906 C 12.09224 1.4683906 13.59837 2.4412094 12 1.4121094 z M 11.5 2.9316406 L 11.5 10.681641 L 11.4375 10.775391 L 11.21875 10.900391 L 4 15.712891 L 4 7.9316406 L 11.5 2.9316406 z M 12.5 2.9316406 L 20 7.9316406 L 20 15.556641 L 12.5 10.556641 L 12.5 2.9316406 z M 12.125 11.525391 L 19.4375 16.400391 L 12 21.369141 L 4.65625 16.494141 L 11.78125 11.744141 L 12.125 11.525391 z "
     class="ColorScheme-Text"
     />
 <path 
     style="fill:currentColor;fill-opacity:0.2;stroke:none" 
     d="M 11.582031 2.875 C 11.569361 2.875 9.8326564 4.0222281 7.7226562 5.4238281 L 3.8867188 7.9726562 L 3.8867188 11.929688 C 3.8867188 14.107088 3.8980094 15.888672 3.9121094 15.888672 C 3.9261894 15.888672 5.6628944 14.740137 7.7714844 13.335938 L 11.605469 10.783203 L 11.605469 6.828125 C 11.605469 4.653325 11.594731 2.875 11.582031 2.875 z "
     class="ColorScheme-Text"
     />
 <path 
     style="fill:currentColor;fill-opacity:0.4;stroke:none" 
     d="M 12.089844 11.394531 C 11.975114 11.399231 4.4068719 16.505828 4.4511719 16.548828 C 4.4730919 16.569928 6.1727156 17.713391 8.2285156 19.087891 C 10.284316 20.462391 11.977986 21.580313 11.992188 21.570312 C 12.632198 21.155513 19.594563 16.444875 19.601562 16.421875 C 19.616592 16.372075 12.174144 11.394531 12.089844 11.394531 z "
     class="ColorScheme-Text"
     />
 <path 
     style="fill:currentColor;fill-opacity:0.6;stroke:none" 
     d="M 12.427734 2.8125 C 12.415134 2.8125 12.403577 4.563625 12.404297 6.703125 L 12.40625 10.591797 L 16.238281 13.15625 C 18.345391 14.56625 20.074078 15.722656 20.080078 15.722656 C 20.086478 15.724356 20.091797 13.969919 20.091797 11.824219 L 20.091797 7.9238281 L 16.271484 5.3671875 C 14.169979 3.9616875 12.440334 2.8125 12.427734 2.8125 z "
     class="ColorScheme-Text"
     />
</svg>

<svg xmlns="http://www.w3.org/2000/svg" viewBox="0 0 24 24"><defs id="defs3051"><style id="current-color-scheme" type="text/css">.ColorScheme-Text{color:#dedede}</style></defs><path d="M12 1.412c-.742.47-.007 0-.781.488L3 7.37V16.587c1.149.752.222.144.75.5l7.344 4.906c.895.596.008 0 .906.594 8.023-5.324 6.054-4.014 8.375-5.563.632-.461.117-.095.625-.468V7.369l-.563-.375L12.782 1.9l-.406-.25c-.283-.182 1.223.791-.375-.238zm-.5 1.52v7.75l-.063.093-.218.125L4 15.713V7.932l7.5-5zm1 0 7.5 5v7.625l-7.5-5V2.932zm-.375 8.593 7.313 4.875L12 21.37l-7.344-4.876 7.125-4.75.344-.219z" class="ColorScheme-Text" style="fill:currentColor;fill-opacity:1;stroke:none"/><path d="M11.582 2.875c-.013 0-1.75 1.147-3.86 2.549L3.888 7.973v3.957c0 2.177.011 3.959.025 3.959.014 0 1.75-1.149 3.86-2.553l3.833-2.553V6.828c0-2.175-.01-3.953-.023-3.953z" class="ColorScheme-Text" style="fill:currentColor;fill-opacity:.2;stroke:none"/><path d="M12.09 11.395c-.115.004-7.683 5.11-7.639 5.154.022.02 1.722 1.164 3.778 2.539 2.055 1.374 3.749 2.492 3.763 2.482.64-.414 7.603-5.125 7.61-5.148.015-.05-7.428-5.027-7.512-5.027z" class="ColorScheme-Text" style="fill:currentColor;fill-opacity:.4;stroke:none"/><path d="M12.428 2.813c-.013 0-.024 1.75-.024 3.89l.002 3.889 3.832 2.564c2.107 1.41 3.836 2.567 3.842 2.567.006.001.012-1.753.012-3.899v-3.9l-3.82-2.557a414.088 414.088 0 0 0-3.844-2.554z" class="ColorScheme-Text" style="fill:currentColor;fill-opacity:.6;stroke:none"/></svg>
